X: 9828
T: Denis O'Keeffe's
R: polka
M: 2/4
K: Dmajor
Af fe/d/|Bg B2|A/B/c/d/ eA|f>e cA|
Af fe/d/|Bg B2|A/B/c/d/ eA|d2 de||
fa gf|eA e2|A/B/c/d/ eA|f>e cA|
fa gf|eA e2|A/B/c/d/ eA|d2 d2||

